packages/icons/src/components/Icon/assets/small-outline/calculator.svg

<svg width="16" height="16" viewBox="0 0 16 16" fill="none" xmlns="http://www.w3.org/2000/svg">
<path fill-rule="evenodd" clip-rule="evenodd" d="M8.00011 2.1831C6.79633 2.1831 5.60906 2.25373 4.44205 2.39107C4.03732 2.4387 3.72233 2.79643 3.72233 3.23933V12.9296C3.72233 13.4196 4.11408 13.8169 4.59733 13.8169H11.4029C11.8861 13.8169 12.2779 13.4196 12.2779 12.9296V3.23933C12.2779 2.79643 11.9629 2.4387 11.5582 2.39107C10.3912 2.25373 9.20389 2.1831 8.00011 2.1831ZM4.30756 1.21586C5.51911 1.07327 6.75129 1 8.00011 1C9.24893 1 10.4811 1.07327 11.6927 1.21586C12.7146 1.33613 13.4446 2.22573 13.4446 3.23933V12.9296C13.4446 14.073 12.5305 15 11.4029 15H4.59733C3.46975 15 2.55566 14.073 2.55566 12.9296V3.23933C2.55566 2.22573 3.2856 1.33613 4.30756 1.21586ZM4.98622 4.05634C4.98622 3.72963 5.24739 3.46479 5.56955 3.46479H10.4307C10.7528 3.46479 11.014 3.72963 11.014 4.05634V5.53521C11.014 5.86192 10.7528 6.12676 10.4307 6.12676H5.56955C5.24739 6.12676 4.98622 5.86192 4.98622 5.53521V4.05634ZM6.15289 4.64789V4.94366H9.84733V4.64789H6.15289ZM4.98622 7.50704C4.98622 7.18034 5.24739 6.91549 5.56955 6.91549H5.57441C5.89658 6.91549 6.15775 7.18034 6.15775 7.50704V7.51197C6.15775 7.83868 5.89658 8.10352 5.57441 8.10352H5.56955C5.24739 8.10352 4.98622 7.83868 4.98622 7.51197V7.50704ZM6.60501 7.50704C6.60501 7.18034 6.86617 6.91549 7.18834 6.91549H7.1932C7.51537 6.91549 7.77654 7.18034 7.77654 7.50704V7.51197C7.77654 7.83868 7.51537 8.10352 7.1932 8.10352H7.18834C6.86617 8.10352 6.60501 7.83868 6.60501 7.51197V7.50704ZM8.22854 7.50704C8.22854 7.18034 8.48971 6.91549 8.81188 6.91549H8.81674C9.1389 6.91549 9.40007 7.18034 9.40007 7.50704V7.51197C9.40007 7.83868 9.1389 8.10352 8.81674 8.10352H8.81188C8.48971 8.10352 8.22854 7.83868 8.22854 7.51197V7.50704ZM9.84733 7.50704C9.84733 7.18034 10.1085 6.91549 10.4307 6.91549H10.4355C10.7577 6.91549 11.0189 7.18034 11.0189 7.50704V7.51197C11.0189 7.83868 10.7577 8.10352 10.4355 8.10352H10.4307C10.1085 8.10352 9.84733 7.83868 9.84733 7.51197V7.50704ZM4.98622 8.98592C4.98622 8.65921 5.24739 8.39437 5.56955 8.39437H5.57441C5.89658 8.39437 6.15775 8.65921 6.15775 8.98592V8.99085C6.15775 9.31755 5.89658 9.58239 5.57441 9.58239H5.56955C5.24739 9.58239 4.98622 9.31755 4.98622 8.99085V8.98592ZM6.60501 8.98592C6.60501 8.65921 6.86617 8.39437 7.18834 8.39437H7.1932C7.51537 8.39437 7.77654 8.65921 7.77654 8.98592V8.99085C7.77654 9.31755 7.51537 9.58239 7.1932 9.58239H7.18834C6.86617 9.58239 6.60501 9.31755 6.60501 8.99085V8.98592ZM8.22854 8.98592C8.22854 8.65921 8.48971 8.39437 8.81188 8.39437H8.81674C9.1389 8.39437 9.40007 8.65921 9.40007 8.98592V8.99085C9.40007 9.31755 9.1389 9.58239 8.81674 9.58239H8.81188C8.48971 9.58239 8.22854 9.31755 8.22854 8.99085V8.98592ZM9.84733 8.98592C9.84733 8.65921 10.1085 8.39437 10.4307 8.39437H10.4355C10.7577 8.39437 11.0189 8.65921 11.0189 8.98592V8.99085C11.0189 9.31755 10.7577 9.58239 10.4355 9.58239H10.4307C10.1085 9.58239 9.84733 9.31755 9.84733 8.99085V8.98592ZM4.98622 10.4648C4.98622 10.1381 5.24739 9.87324 5.56955 9.87324H5.57441C5.89658 9.87324 6.15775 10.1381 6.15775 10.4648V10.4697C6.15775 10.7964 5.89658 11.0613 5.57441 11.0613H5.56955C5.24739 11.0613 4.98622 10.7964 4.98622 10.4697V10.4648ZM6.60501 10.4648C6.60501 10.1381 6.86617 9.87324 7.18834 9.87324H7.1932C7.51537 9.87324 7.77654 10.1381 7.77654 10.4648V10.4697C7.77654 10.7964 7.51537 11.0613 7.1932 11.0613H7.18834C6.86617 11.0613 6.60501 10.7964 6.60501 10.4697V10.4648ZM8.22854 10.4648C8.22854 10.1381 8.48971 9.87324 8.81188 9.87324H8.81674C9.1389 9.87324 9.40007 10.1381 9.40007 10.4648V10.4697C9.40007 10.7964 9.1389 11.0613 8.81674 11.0613H8.81188C8.48971 11.0613 8.22854 10.7964 8.22854 10.4697V10.4648ZM10.4307 9.87324C10.7528 9.87324 11.014 10.1381 11.014 10.4648V11.9437C11.014 12.2704 10.7528 12.5352 10.4307 12.5352C10.1085 12.5352 9.84733 12.2704 9.84733 11.9437V10.4648C9.84733 10.1381 10.1085 9.87324 10.4307 9.87324ZM4.98622 11.9437C4.98622 11.617 5.24739 11.3521 5.56955 11.3521H5.57441C5.89658 11.3521 6.15775 11.617 6.15775 11.9437V11.9486C6.15775 12.2753 5.89658 12.5401 5.57441 12.5401H5.56955C5.24739 12.5401 4.98622 12.2753 4.98622 11.9486V11.9437ZM6.60501 11.9437C6.60501 11.617 6.86617 11.3521 7.18834 11.3521H7.1932C7.51537 11.3521 7.77654 11.617 7.77654 11.9437V11.9486C7.77654 12.2753 7.51537 12.5401 7.1932 12.5401H7.18834C6.86617 12.5401 6.60501 12.2753 6.60501 11.9486V11.9437ZM8.22854 11.9437C8.22854 11.617 8.48971 11.3521 8.81188 11.3521H8.81674C9.1389 11.3521 9.40007 11.617 9.40007 11.9437V11.9486C9.40007 12.2753 9.1389 12.5401 8.81674 12.5401H8.81188C8.48971 12.5401 8.22854 12.2753 8.22854 11.9486V11.9437Z" fill="black"/>
</svg>

<svg xmlns="http://www.w3.org/2000/svg" width="16" height="16" fill="none" viewBox="0 0 16 16">
    <path d="M8 2.183q-1.806 0-3.558.208c-.405.048-.72.405-.72.848v9.69c0 .49.392.888.875.888h6.806a.88.88 0 0 0 .875-.887V3.24c0-.444-.315-.801-.72-.849A30 30 0 0 0 8 2.183m-3.692-.967a31.6 31.6 0 0 1 7.385 0c1.022.12 1.752 1.01 1.752 2.023v9.69c0 1.144-.915 2.071-2.042 2.071H4.597c-1.127 0-2.041-.927-2.041-2.07V3.24c0-1.014.73-1.904 1.752-2.024m.678 2.84c0-.326.261-.591.584-.591h4.86c.323 0 .584.265.584.591v1.48a.587.587 0 0 1-.583.59H5.57a.587.587 0 0 1-.584-.59zm1.167.592v.296h3.694v-.296zM4.986 7.507c0-.327.261-.592.584-.592h.004c.323 0 .584.265.584.592v.005a.587.587 0 0 1-.584.592H5.57a.587.587 0 0 1-.584-.592zm1.619 0c0-.327.261-.592.583-.592h.005c.322 0 .584.265.584.592v.005a.587.587 0 0 1-.584.592h-.005a.587.587 0 0 1-.583-.592zm1.624 0c0-.327.26-.592.583-.592h.005c.322 0 .583.265.583.592v.005a.587.587 0 0 1-.583.592h-.005a.587.587 0 0 1-.583-.592zm1.618 0c0-.327.261-.592.584-.592h.005c.322 0 .583.265.583.592v.005a.59.59 0 0 1-.584.592h-.004a.587.587 0 0 1-.584-.592zm-4.86 1.479c0-.327.26-.592.583-.592h.004c.323 0 .584.265.584.592v.005a.587.587 0 0 1-.584.591H5.57a.587.587 0 0 1-.584-.591zm1.618 0c0-.327.261-.592.583-.592h.005c.322 0 .584.265.584.592v.005a.587.587 0 0 1-.584.591h-.005a.587.587 0 0 1-.583-.591zm1.624 0c0-.327.26-.592.583-.592h.005c.322 0 .583.265.583.592v.005a.587.587 0 0 1-.583.591h-.005a.587.587 0 0 1-.583-.591zm1.618 0c0-.327.261-.592.584-.592h.005c.322 0 .583.265.583.592v.005a.59.59 0 0 1-.584.591h-.004a.587.587 0 0 1-.584-.591zm-4.86 1.479c0-.327.26-.592.583-.592h.004c.323 0 .584.265.584.592v.005a.59.59 0 0 1-.584.591H5.57a.59.59 0 0 1-.584-.591zm1.618 0c0-.327.261-.592.583-.592h.005c.322 0 .584.265.584.592v.005a.59.59 0 0 1-.584.591h-.005a.59.59 0 0 1-.583-.591zm1.624 0c0-.327.26-.592.583-.592h.005c.322 0 .583.265.583.592v.005a.59.59 0 0 1-.583.591h-.005a.59.59 0 0 1-.583-.591zm2.202-.592c.322 0 .583.265.583.592v1.479a.587.587 0 0 1-.583.591.587.587 0 0 1-.584-.591v-1.48c0-.326.261-.59.584-.59m-5.445 2.07c0-.326.261-.59.584-.59h.004c.323 0 .584.264.584.59v.006a.587.587 0 0 1-.584.591H5.57a.587.587 0 0 1-.584-.591zm1.619 0c0-.326.261-.59.583-.59h.005c.322 0 .584.264.584.59v.006a.587.587 0 0 1-.584.591h-.005a.587.587 0 0 1-.583-.591zm1.624 0c0-.326.26-.59.583-.59h.005c.322 0 .583.264.583.59v.006a.587.587 0 0 1-.583.591h-.005a.587.587 0 0 1-.583-.591z" clip-rule="evenodd"/>
</svg>
